data/tiles/rock.svg

<?xml version="1.0" encoding="UTF-8" standalone="no"?>
<!-- Created with Inkscape (http://www.inkscape.org/) -->
<svg
   xmlns:svg="http://www.w3.org/2000/svg"
   xmlns="http://www.w3.org/2000/svg"
   version="1.0"
   width="32"
   height="32"
   id="svg2">
  <defs
     id="defs4" />
  <g
     id="layer1">
    <path
       d="M 6.5178567,14.5 L 11.25,14.857143 L 6.1607141,20.392857 L 14.999999,24.589285 L 22.67857,20.839285 L 24.732142,16.375 L 23.482142,10.839286 L 16.25,10.482143 L 11.160714,8.5178572 L 6.5178567,14.5 z"
       id="path1895"
       style="fill:#5c4f4b;fill-opacity:1;fill-rule:evenodd;stroke:#000000;stroke-width:1px;stroke-linecap:butt;stroke-linejoin:miter;stroke-opacity:1" />
    <path
       d="M 10.803571,12.267857 L 6.696429,17.803572 L 15.178571,22.089285 L 22.589286,17.089285 L 21.428571,8.6071429 L 16.42857,7.3571429 L 10.803571,12.267857 z"
       id="path1897"
       style="fill:#5c4f4b;fill-opacity:1;fill-rule:evenodd;stroke:#000000;stroke-width:1px;stroke-linecap:butt;stroke-linejoin:miter;stroke-opacity:1" />
    <path
       d="M 13.035714,15.75 L 20,14.321429 L 18.214286,12.178571 L 14.464285,11.910714 L 13.035714,15.75 z"
       id="path2786"
       style="fill:#5c4f4b;fill-opacity:1;fill-rule:evenodd;stroke:#000000;stroke-width:1px;stroke-linecap:butt;stroke-linejoin:miter;stroke-opacity:1" />
  </g>
</svg>

<?xml version="1.0" encoding="UTF-8" standalone="no"?>
<!-- Created with Inkscape (http://www.inkscape.org/) -->
<svg id="svg2" xmlns="http://www.w3.org/2000/svg" height="32" width="32" version="1.0">
 <g id="layer1" stroke-linejoin="miter" fill-rule="evenodd" stroke="#000" stroke-linecap="butt" stroke-width="1px" fill="#5c4f4b">
  <path id="path1" d="M6.5179,14.5l4.7321,0.357-5.0893,5.536,8.8393,4.196,7.679-3.75,2.053-4.464-1.25-5.536-7.232-0.357-5.089-1.9641-4.6431,5.9821z"/>
  <path id="path2" d="M10.804,12.268l-4.1076,5.536,8.4826,4.285,7.41-5-1.16-8.4819-5-1.25-5.625,4.9109z"/>
  <path id="path3" d="M13.036,15.75l6.964-1.429-1.786-2.142-3.75-0.268-1.428,3.839z"/>
 </g>
</svg>
